world_stage/static/flags/rect/fro.svg

<svg height="977.77734" viewBox="0 0 1466.6667 977.77734" width="1466.6667" xmlns="http://www.w3.org/2000/svg"><path d="m0 0h1100v733.333h-1100z" fill="#fff" transform="matrix(1.3333333 0 0 -1.3333333 0 977.77733)"/><path d="m0 0v-266.667h-300v-200h300v-266.666h200.001v266.666h599.999v200h-599.999v266.667z" fill="#0065bd" transform="matrix(1.3333333 0 0 -1.3333333 399.9996 -.000667)"/><path d="m0 0v-316.667h-350v-100h350v-316.666h100v316.666h650v100h-650v316.667z" fill="#ed2939" transform="matrix(1.3333333 0 0 -1.3333333 466.6668 -.000667)"/></svg>

<?xml version="1.0" encoding="UTF-8" standalone="no"?>
<!-- Created with Inkscape (http://www.inkscape.org/) -->

<svg
   version="1.1"
   id="svg1"
   width="1466.6667"
   height="977.77734"
   viewBox="0 0 1466.6667 977.77734"
   sodipodi:docname="fo.ai"
   xmlns:inkscape="http://www.inkscape.org/namespaces/inkscape"
   xmlns:sodipodi="http://sodipodi.sourceforge.net/DTD/sodipodi-0.dtd"
   xmlns="http://www.w3.org/2000/svg"
   xmlns:svg="http://www.w3.org/2000/svg">
  <defs
     id="defs1" />
  <sodipodi:namedview
     id="namedview1"
     pagecolor="#ffffff"
     bordercolor="#000000"
     borderopacity="0.25"
     inkscape:showpageshadow="2"
     inkscape:pageopacity="0.0"
     inkscape:pagecheckerboard="0"
     inkscape:deskcolor="#d1d1d1">
    <inkscape:page
       x="0"
       y="0"
       inkscape:label="1"
       id="page1"
       width="1466.6667"
       height="977.77734"
       margin="0"
       bleed="0" />
  </sodipodi:namedview>
  <g
     id="layer-MC0"
     inkscape:groupmode="layer"
     inkscape:label="Flag_of_the_Faroe Islands">
    <path
       id="path1"
       d="M 0,0 H 1100 V 733.333 H 0 Z"
       style="fill:#ffffff;fill-opacity:1;fill-rule:nonzero;stroke:none"
       transform="matrix(1.3333333,0,0,-1.3333333,0,977.77733)" />
    <path
       id="path2"
       d="m 0,0 v -266.667 h -300 v -200 H 0 v -266.666 h 200.001 v 266.666 H 800 v 200 H 200.001 l 0,266.667 z"
       style="fill:#0065bd;fill-opacity:1;fill-rule:nonzero;stroke:none"
       transform="matrix(1.3333333,0,0,-1.3333333,399.9996,-6.6666667e-4)" />
    <path
       id="path3"
       d="m 0,0 v -316.667 h -350 v -100 H 0 v -316.666 h 100 v 316.666 h 650 v 100 H 100 V 0 Z"
       style="fill:#ed2939;fill-opacity:1;fill-rule:nonzero;stroke:none"
       transform="matrix(1.3333333,0,0,-1.3333333,466.6668,-6.6666667e-4)" />
  </g>
</svg>
